img/svg/checkbox-checked.svg

<svg width="16" height="16" viewBox="0 0 16 16" fill="none" xmlns="http://www.w3.org/2000/svg">
<path d="M4.35556 6.31111L3.11111 7.55556L7.11111 11.5556L16 2.66667L14.7556 1.42222L7.11111 9.06667L4.35556 6.31111ZM14.2222 14.2222H1.77778V1.77778H10.6667V0H1.77778C0.8 0 0 0.8 0 1.77778V14.2222C0 15.2 0.8 16 1.77778 16H14.2222C15.2 16 16 15.2 16 14.2222V7.11111H14.2222V14.2222Z" fill="url(#paint0_linear_21_12652)"/>
<defs>
<linearGradient id="paint0_linear_21_12652" x1="0" y1="8" x2="16" y2="8" gradientUnits="userSpaceOnUse">
<stop offset="0" stop-color="#0CBAF1"/>
<stop offset="1" stop-color="#E95CE9"/>
</linearGradient>
</defs>
</svg>

<svg width="16" height="16" fill="none" xmlns="http://www.w3.org/2000/svg"><path d="M4.356 6.311 3.11 7.556l4 4L16 2.666l-1.244-1.244L7.11 9.067 4.356 6.31Zm9.866 7.911H1.778V1.778h8.889V0h-8.89C.8 0 0 .8 0 1.778v12.444C0 15.2.8 16 1.778 16h12.444C15.2 16 16 15.2 16 14.222v-7.11h-1.778v7.11Z" fill="url(#a)"/><defs><linearGradient id="a" x1="0" y1="8" x2="16" y2="8" gradientUnits="userSpaceOnUse"><stop offset="0" stop-color="#0CBAF1"/><stop offset="1" stop-color="#E95CE9"/></linearGradient></defs></svg>
